build/flags/CSA.svg

<svg xmlns="http://www.w3.org/2000/svg" fill="none" viewBox="0 0 28 28" focusable="false"><defs><filter id="CSA_svg__a"><feColorMatrix values="0 0 0 0 1 0 0 0 0 1 0 0 0 0 1 0 0 0 1 0"/></filter></defs><mask id="CSA_svg__b" width="28" height="20" x="0" y="4" maskUnits="userSpaceOnUse"><g filter="url(#CSA_svg__a)"><rect width="28" height="20" y="4" fill="#FFF" rx="3"/><rect width="28" height="20" y="4" stroke="#969696" stroke-opacity="0" stroke-width="0" rx="3"/></g></mask><path fill="none" d="M0 0H28V28H0z"/><rect width="28" height="20" y="4" fill="#FFF" rx="3"/><rect width="28" height="20" y="4" rx="3"/><g mask="url(#CSA_svg__b)"><path fill="#19BFBF" d="M0 4H28V24H0z"/><path d="M0 4H28V24H0z"/><path fill="#FFF" fill-rule="evenodd" d="M10 20.0411C10 20.0139 10.0034 19.9867 10.01 19.9603L10.6667 17.3334L11.3098 14.7609C11.3252 14.6994 11.3227 14.6348 11.3027 14.5747L10.7104 12.7977C10.6824 12.7139 10.6223 12.6445 10.5432 12.605L9.51764 12.0922C9.40471 12.0357 9.33337 11.9203 9.33337 11.7941L9.33337 9.4121C9.33337 9.36036 9.34542 9.30932 9.36856 9.26303L10 8.00008L10.5746 6.85101C10.631 6.73808 10.7465 6.66675 10.8727 6.66675L14.3334 6.66675C14.5175 6.66675 14.6667 6.81599 14.6667 7.00008L14.6667 7.66675C14.6667 7.85084 14.8159 8.00008 15 8.00008L15.6667 8.00008C15.8508 8.00008 16 8.14932 16 8.33342L16 9.1274C16 9.25366 16.0714 9.36908 16.1843 9.42555L18.4824 10.5746C18.5954 10.6311 18.6667 10.7465 18.6667 10.8728L18.6667 11.9214C18.6667 11.9731 18.6547 12.0242 18.6315 12.0705L18.0396 13.2542C18.0137 13.3061 17.9747 13.3503 17.9264 13.3825L16.0737 14.6176C16.0254 14.6498 15.9864 14.694 15.9605 14.7459L14.7063 17.2542C14.6804 17.3061 14.6413 17.3503 14.5931 17.3825L12.7404 18.6176C12.6921 18.6498 12.6531 18.694 12.6271 18.7459L11.4255 21.1492C11.369 21.2621 11.2536 21.3334 11.1274 21.3334L10.3334 21.3334C10.1493 21.3334 10 21.1842 10 21.0001L10 20.0411Z"/><path d="M10.6667 17.3334L11.3098 14.7609C11.3252 14.6994 11.3227 14.6348 11.3027 14.5747L10.7104 12.7977C10.6824 12.7139 10.6223 12.6445 10.5432 12.605L9.51764 12.0922C9.40471 12.0357 9.33337 11.9203 9.33337 11.7941L9.33337 9.4121C9.33337 9.36036 9.34542 9.30932 9.36856 9.26303L10 8.00008L10.5746 6.85101C10.631 6.73808 10.7465 6.66675 10.8727 6.66675L14.3334 6.66675C14.5175 6.66675 14.6667 6.81599 14.6667 7.00008L14.6667 7.66675C14.6667 7.85084 14.8159 8.00008 15 8.00008L15.6667 8.00008C15.8508 8.00008 16 8.14932 16 8.33342L16 9.1274C16 9.25366 16.0714 9.36908 16.1843 9.42555L18.4824 10.5746C18.5954 10.6311 18.6667 10.7465 18.6667 10.8728L18.6667 11.9214C18.6667 11.9731 18.6547 12.0242 18.6315 12.0705L18.0396 13.2542C18.0137 13.3061 17.9747 13.3503 17.9264 13.3825L16.0737 14.6176C16.0254 14.6498 15.9864 14.694 15.9605 14.7459L14.7063 17.2542C14.6804 17.3061 14.6413 17.3503 14.5931 17.3825L12.7404 18.6176C12.6921 18.6498 12.6531 18.694 12.6271 18.7459L11.4255 21.1492C11.369 21.2621 11.2536 21.3334 11.1274 21.3334L10.3334 21.3334C10.1493 21.3334 10 21.1842 10 21.0001L10 20.0411C10 20.0139 9.99343 19.9867 10 19.9603L10.6667 17.3334Z"/></g></svg>

<svg xmlns="http://www.w3.org/2000/svg" fill="none" viewBox="0 0 28 28" focusable="false"><path fill="none" d="M0 0h28v28H0z"/><rect width="28" height="20" y="4" fill="#FFF" rx="3"/><rect width="28" height="20" y="4" rx="3"/><mask id="CSA_svg__a" width="28" height="20" x="0" y="4" mask-type="alpha" maskUnits="userSpaceOnUse"><rect width="28" height="20" y="4" fill="#FFF" rx="3"/><rect width="28" height="20" y="4" stroke="#979797" stroke-opacity="0" stroke-width="0" rx="3"/></mask><g mask="url(#CSA_svg__a)"><path fill="#19BFBF" d="M0 4h28v20H0z"/><path d="M0 4h28v20H0z"/></g><g mask="url(#CSA_svg__a)"><path fill="#FFF" fill-rule="evenodd" d="M10 20.04c0-.03 0-.06.01-.08l.65-2.63.64-2.57c.02-.07.02-.13 0-.19l-.59-1.78a.35.35 0 0 0-.17-.19l-1.03-.51a.34.34 0 0 1-.18-.3V9.41c0-.05.01-.11.03-.15L10 8l.57-1.15c.06-.12.17-.19.3-.19h3.46c.18 0 .33.15.33.34v.66c0 .19.15.34.34.34h.66c.19 0 .34.14.34.33v.79c0 .13.07.24.18.3l2.3 1.15c.11.06.18.17.18.3v1.05q0 .075-.03.15l-.6 1.18c-.02.05-.06.1-.11.13l-1.85 1.23c-.05.03-.09.08-.11.13l-1.26 2.51c-.02.05-.06.1-.11.13l-1.85 1.23c-.05.03-.09.08-.12.13l-1.2 2.4c-.06.12-.17.19-.3.19h-.79c-.19 0-.33-.15-.33-.33z"/><path d="m10.66 17.33.64-2.57c.02-.07.02-.13 0-.19l-.59-1.78a.35.35 0 0 0-.17-.19l-1.03-.51a.34.34 0 0 1-.18-.3V9.41c0-.05.01-.11.03-.15L10 8l.57-1.15c.06-.12.17-.19.3-.19h3.46c.18 0 .33.15.33.34v.66c0 .19.15.34.34.34h.66c.19 0 .34.14.34.33v.79c0 .13.07.24.18.3l2.3 1.15c.11.06.18.17.18.3v1.05q0 .075-.03.15l-.6 1.18c-.02.05-.06.1-.11.13l-1.85 1.23c-.05.03-.09.08-.11.13l-1.26 2.51c-.02.05-.06.1-.11.13l-1.85 1.23c-.05.03-.09.08-.12.13l-1.2 2.4c-.06.12-.17.19-.3.19h-.79c-.19 0-.33-.15-.33-.33v-.96c0-.03.01-.06.01-.08z"/></g></svg>
